**kern	**kern
*part1	*part1
*staff2	*staff1
*I"Piano	*
*clefF4	*clefG2
*k[f#c#]	*k[f#c#]
*M3/8	*M3/8
=1	=1
8r	8d
=	=
8BL	8ddL
8A	8cc#
8GJ	8bJ
=	=
8F#L	8aL
8E	8g
8DJ	8f#J
=	=
8C#L	8AL 8e
8C#	8A 8e
8C#J	8AJ 8e
=	=
4C#	4A 4e
8D	8f#
=	=
*	*^
4.E	8.g	4.A
.	16a	.
.	8g	.
=	=	=
4.D	8.f#	4.A
.	16g	.
.	8f#	.
=	=	=
4AA	8.c# 8.e	4A
.	16f#	.
8AA	8e	8A
*	*v	*v
=	=
4F#	4A 4d
8D	8d 8f#
=	=
*-	*-
!!!system-decoration: {(s1,s2)}
